X:1
T:Meribah, 88.68.86
T:Meribah, 88.68.86
T:Lowell Mason, 1839
T:Public Domain Courtesy of the Cyber Hymnal™
C:Lowell Mason, 1839
Z:Public Domain
Z:Courtesy of the Cyber Hymnal™
%%score ( 1 2 ) ( 3 4 )
L:1/8
Q:1/4=140
M:3/2
K:Eb
V:1 treble 
V:2 treble 
V:3 bass 
V:4 bass 
V:1
 E4 | [EG]3 [EG] [EG]2 [DF]2 [EG]2 [FA]2 | [GB]8 [EG]4 | [Ec]3 [Ec] [Ec]2 [EB]2 [DA]2 [EG]2 | %4
 [DF]8 [FB]4 | [Fd]2 [Gc]2 [FB]4 [E=A]4 | [DB]8 [GB]4 | [Ge]2 [GB]2 [GB]2 [EG]2 [EA]2 [Ac]2 | %8
 [GB]8 [GB]4 | [Ge]2 [GB]2 [GB]2 [EG]2 [EA]2 [Ac]2 | [GB]8 E4 | [CF]2 [FA]2 [EG]4 [DF]4 x2 | E8 |] %13
V:2
 E4 | x12 | x12 | x12 | x12 | x12 | x12 | x12 | x12 | x12 | x12 | x14 | E8 |] %13
V:3
 [E,G,]4 | [E,B,]3 [E,B,] [E,B,]2 [A,B,]2 [G,B,]2 [F,B,]2 | [E,B,]8 [E,B,]4 | %3
 A,3 A, A,2 [G,B,]2 [F,B,]2 [E,B,]2 | [B,,B,]8 [B,,D]4 | [B,,F]2 [E,E]2 [F,D]4 [F,C]4 | %6
 [B,,B,]8 [E,B,]4 | [E,B,]2 [E,E]2 [E,E]2 [E,B,]2 [C,C]2 [A,,E]2 | [E,E]8 [E,B,]4 | %9
 [E,B,]2 [E,E]2 [E,E]2 [E,B,]2 [C,C]2 [A,,E]2 | [E,E]8 [G,,B,]4 | [A,,A,]2 [A,,C]2 B,6 (z2 A,2) | %12
 [E,G,]8 |] %13
V:4
 x4 | x12 | x12 | A,3 A, x8 | x12 | x12 | x12 | x12 | x12 | x12 | x12 | x4 B,,4 B,,4 x2 | x8 |] %13

